front/svg/symbols/main/upvote.svg

<?xml version="1.0" encoding="UTF-8" standalone="no"?>
<svg width="20px" height="20px" viewBox="0 0 20 20" version="1.1" xmlns="http://www.w3.org/2000/svg">
	<g>
		<path d="M20,10 C20,4.47722222 15.5227778,0 10,0 C4.47722222,0 0,4.47722222 0,10 C0,15.5230556 4.47722222,20 10,20 C15.5227778,20 20,15.5230556 20,10 Z" fill="#999999"></path>
		<path d="M9.493149,6.77567231 L6.5,9.77715877 L5.75,9.02506964 L10,4.7632312 L14.25,9.02506964 L13.5,9.77715877 L10.5,6.76880223 L10.5,15.2924791 L9.5,15.2924791 L9.493149,6.77567231 Z" stroke="#FFFFFF" stroke-width="0.5" fill="#FFFFFF"></path>
	</g>
</svg>

<svg width="20" height="20" viewBox="0 0 20 20" xmlns="http://www.w3.org/2000/svg">
	<path d="M20 10c0-5.523-4.477-10-10-10S0 4.477 0 10s4.477 10 10 10 10-4.477 10-10z"/>
	<path d="M9.493 6.776l-2.993 3-.75-.75L10 4.762l4.25 4.262-.75.752-3-3.008v8.522h-1l-.007-8.516z" stroke="#FFF" stroke-width=".5" fill="#FFF"/>
</svg>
